Adwaita++/apps/scalable/evernote.svg

<svg height="128" width="128" xmlns="http://www.w3.org/2000/svg" xmlns:xlink="http://www.w3.org/1999/xlink">
  <linearGradient id="e" gradientTransform="matrix(1.0015 0 0 .99993 72.09 56.015)" gradientUnits="userSpaceOnUse" x1="43.844" x2="-60" y1="234" y2="234">
    <stop offset="0" stop-color="#d5d3cf"/>
    <stop offset=".038" stop-color="#e3e2df"/>
    <stop offset=".077" stop-color="#c0bfbc"/>
    <stop offset=".923" stop-color="#c0bfbc"/>
    <stop offset=".962" stop-color="#e3e2df"/>
    <stop offset="1" stop-color="#d5d3cf"/>
  </linearGradient>
  <g transform="translate(0 -172)">
    <rect fill="url(#e)" height="48" rx="8" width="104" x="12" y="240"/>
    <path d="m20 10c-4.432 0-8 3.568-8 8v42 42c0 4.432 3.568 8 8 8h44 44c4.432 0 8-3.568 8-8v-42-42c0-4.432-3.568-8-8-8z" fill="#f6f5f4" transform="translate(0 172)"/>
    <path d="m12.303699 190.44327c-.200351 3.8043-.303699 7.92569-.303699 12.61635v32.44126c0 5.06357.09065 9.58456.328295 13.6194.04878.8282.132961 1.54992.194623 2.33764 5.736054 1.22786 11.113386 1.78593 12.152243-.40528 1.668026-4.36509 2.500789-11.56636 2.847714-14.42145 0 1.92742.296058 9.72276 5.557475 11.55234 2.08479.71809 6.38481 1.35326 10.76742 1.84893 3.96658.4417 5.90503 1.96274 5.90503 11.89345 0 6.03724-.36832 6.46324-7.14549 6.46324-6.11978 0-8.73349-.00023-8.73349-3.17601 0-3.17585 1.86862-3.17601 6.35202-3.17601v-6.35095c-8.96689 0-12.702965-.00023-12.702965 10.46371 0 9.54362 3.630665 11.76621 16.334525 11.76621 9.96218 0 13.47642-.33339 17.58781-12.77783.81148-2.46087 2.79323-9.96637 3.98124-22.57745.74632-7.96178-.71977-32.00492-1.88528-38.09928v-.006c-.67645-3.55276-2.82278-5.29008-4.78861-5.98309-2.10874-.74818-6.38727-1.49979-11.74803-2.1184-4.3318-.50411-10.0597-1.10072-13.13071-1.00415 0-2.22304-1.47979-4.06781-3.45832-4.85703-2.635919-1.02605-5.992857-1.42216-8.952706-1.48536v-.004c-2.956676-.0629-5.521116.20208-6.572306.49085-.760008.20229-1.699808.53648-2.586789.94852zm35.861091 36.66097c2.63094 0 4.76401 2.84306 4.76401 6.35094h-9.52802c0-3.50803 2.13308-6.35094 4.76401-6.35094z" fill="#7ec242"/>
  </g>
</svg>

<svg xmlns="http://www.w3.org/2000/svg" xmlns:xlink="http://www.w3.org/1999/xlink" width="128" height="128" version="1.0">
 <defs>
  <linearGradient id="a">
   <stop id="stop2" offset="0" stop-color="#68676b"/>
   <stop id="stop4" offset=".8" stop-color="#424048"/>
   <stop id="stop6" offset="1" stop-color="#241f31"/>
  </linearGradient>
  <radialGradient id="d" cx="279.422" cy="446.483" r="224" fx="279.422" fy="446.483" gradientTransform="matrix(1.34416 .0006 -.00062 1.38763 -121.22 -718.103)" gradientUnits="userSpaceOnUse" xlink:href="#a"/>
  <linearGradient id="e" x1="43.844" x2="-60" y1="234" y2="234" gradientTransform="matrix(1.0015 0 0 .99993 72.09 56.015)" gradientUnits="userSpaceOnUse" xlink:href="#b"/>
  <linearGradient id="b">
   <stop id="stop11" offset="0" stop-color="#d5d3cf"/>
   <stop id="stop13" offset=".038" stop-color="#e3e2df"/>
   <stop id="stop15" offset=".077" stop-color="#c0bfbc"/>
   <stop id="stop17" offset=".923" stop-color="#c0bfbc"/>
   <stop id="stop19" offset=".962" stop-color="#e3e2df"/>
   <stop id="stop21" offset="1" stop-color="#d5d3cf"/>
  </linearGradient>
  <linearGradient id="linearGradient1007" x1="160.305" x2="161.33" y1="240.139" y2="135.579" gradientTransform="matrix(0.54625232,0,0,0.54625232,-6.0941965,-68.413544)" gradientUnits="userSpaceOnUse" xlink:href="#linearGradient1018"/>
  <linearGradient id="linearGradient1018">
   <stop id="stop2-3" offset="0" style="stop-color:#37a6e6"/>
   <stop id="stop4-6" offset="1" style="stop-color:#1a7fd4"/>
  </linearGradient>
 </defs>
 <g transform="translate(0 -172)">
  <rect fill="url(#e)" width="104" height="48" x="12" y="240" rx="8" ry="8"/>
  <path d="M 20 10 C 15.568 10 12 13.568 12 18 L 12 60 L 12 102 C 12 106.432 15.568 110 20 110 L 64 110 L 108 110 C 112.432 110 116 106.432 116 102 L 116 60 L 116 18 C 116 13.568 112.432 10 108 10 L 20 10 z" transform="translate(0,172)" style="fill:#f6f5f4"/>
  <path d="M 12.303699,190.44327 C 12.103348,194.24757 12,198.36896 12,203.05962 v 32.44126 c 0,5.06357 0.09065,9.58456 0.328295,13.6194 0.04878,0.8282 0.132961,1.54992 0.194623,2.33764 5.736054,1.22786 11.113386,1.78593 12.152243,-0.40528 1.668026,-4.36509 2.500789,-11.56636 2.847714,-14.42145 0,1.92742 0.296058,9.72276 5.557475,11.55234 2.08479,0.71809 6.38481,1.35326 10.76742,1.84893 3.96658,0.4417 5.90503,1.96274 5.90503,11.89345 0,6.03724 -0.36832,6.46324 -7.14549,6.46324 -6.11978,0 -8.73349,-2.3e-4 -8.73349,-3.17601 0,-3.17585 1.86862,-3.17601 6.35202,-3.17601 v -6.35095 c -8.96689,0 -12.702965,-2.3e-4 -12.702965,10.46371 0,9.54362 3.630665,11.76621 16.334525,11.76621 9.96218,0 13.47642,-0.33339 17.58781,-12.77783 0.81148,-2.46087 2.79323,-9.96637 3.98124,-22.57745 0.74632,-7.96178 -0.71977,-32.00492 -1.88528,-38.09928 v -0.006 c -0.67645,-3.55276 -2.82278,-5.29008 -4.78861,-5.98309 -2.10874,-0.74818 -6.38727,-1.49979 -11.74803,-2.1184 -4.3318,-0.50411 -10.0597,-1.10072 -13.13071,-1.00415 0,-2.22304 -1.47979,-4.06781 -3.45832,-4.85703 -2.635919,-1.02605 -5.992857,-1.42216 -8.952706,-1.48536 v -0.004 c -2.956676,-0.0629 -5.521116,0.20208 -6.572306,0.49085 -0.760008,0.20229 -1.699808,0.53648 -2.586789,0.94852 z m 35.861091,36.66097 c 2.63094,0 4.76401,2.84306 4.76401,6.35094 h -9.52802 c 0,-3.50803 2.13308,-6.35094 4.76401,-6.35094 z" style="fill:#7ec242"/>
 </g>
</svg>
